X:1
T:Mardin, SM
T:Mardin, SM
T:William Howard Doane, 1875
T:Public Domain Courtesy of the Cyber Hymnal™
C:William Howard Doane, 1875
Z:Public Domain
Z:Courtesy of the Cyber Hymnal™
%%score ( 1 2 ) ( 3 4 )
L:1/8
Q:1/4=110
M:4/4
K:G
V:1 treble 
V:2 treble 
V:3 bass 
V:4 bass 
V:1
 (GA) | [GB]2 (AG) [CE]2 [CD]2 | [B,G]6 [DG]2 | [DA]2 [DA]2 [DA]2 [DB]2 | [DA]6 (GA) | %5
 [GB]2 (AG) [CE]2 ([CE][DF]) | [EG]2 ([DF][CE]) [B,D]2 [DG]2 | [DA]3 [DG] [GB]2 [DA]2 | %8
 [DG]6 ([GB][Ac]) | [Bd]3 [ce] [Bd]2 [GB]2 | G6 ([GB][Ac]) | [Bd]3 [ce] [Bd]2 [GB]2 | [FA]6 (GA) | %13
 [GB]2 (AG) [CE]2 ([CE][DF]) | [EG]2 ([DF][CE]) [B,D]2 [DG]2 | [DA]3 [DG] [GB]2 [DA]2 | [DG]4 |] %17
V:2
 D2 | x2 D2 x4 | x8 | x8 | x6 D2 | x2 D2 x4 | x8 | x8 | x8 | x8 | G6 x2 | x8 | x6 D2 | x2 D2 x4 | %14
 x8 | x8 | x4 |] %17
V:3
 (B,C) | [G,D]2 (CB,) [C,G,]2 [D,F,]2 | [G,,G,]6 [B,,G,]2 | [D,F,]2 [D,F,]2 [D,F,]2 G,2 | %4
 [D,F,]6 (B,C) | [G,D]2 [G,B,]2 [C,G,]2 [C,G,]2 | [C,G,]2 [C,G,]2 [G,,G,]2 [G,,G,]2 | %7
 [D,C]3 [D,B,] [D,D]2 [D,C]2 | [G,B,]6 [G,D]2 | [G,D]3 [G,D] [G,D]2 [G,D]2 | %10
 [G,B,]2 [G,B,]2 [G,B,]2 [G,D]2 | [G,D]3 [G,D] [G,D]2 [G,D]2 | [G,D]2 [G,D]2 [G,D]2 (B,C) | %13
 [G,D]2 [G,B,]2 [C,G,]2 [C,G,]2 | [C,G,]2 [C,G,]2 [G,,G,]2 [B,,G,]2 | [D,C]3 [D,B,] [D,D]2 [D,C]2 | %16
 [G,,G,B,]4 |] %17
V:4
 G,2 | x2 G,2 x4 | x8 | x6 G,2 | x6 G,2 | x8 | x8 | x8 | x8 | x8 | x8 | x8 | x6 G,2 | x8 | x8 | %15
 x8 | x4 |] %17

